dist/projects/justice/icons/documentary.svg

<svg width="80" height="80" viewBox="0 0 80 80" fill="none" xmlns="http://www.w3.org/2000/svg">
<path d="M23.6219 54.4171H25.8891C26.1377 54.4171 26.3762 54.3184 26.552 54.1426C26.7278 53.9667 26.8266 53.7283 26.8266 53.4796C26.8266 53.231 26.7278 52.9926 26.552 52.8167C26.3762 52.6409 26.1377 52.5421 25.8891 52.5421H23.6219C23.3732 52.5421 23.1348 52.6409 22.959 52.8167C22.7832 52.9926 22.6844 53.231 22.6844 53.4796C22.6844 53.7283 22.7832 53.9667 22.959 54.1426C23.1348 54.3184 23.3732 54.4171 23.6219 54.4171Z" fill="white"/>
<path d="M34.3578 56.7906H37.2579C37.5065 56.7906 37.7449 56.6919 37.9208 56.516C38.0966 56.3402 38.1954 56.1018 38.1954 55.8531C38.1954 55.6045 38.0966 55.366 37.9208 55.1902C37.7449 55.0144 37.5065 54.9156 37.2579 54.9156H34.3578C34.1092 54.9156 33.8708 55.0144 33.6949 55.1902C33.5191 55.366 33.4203 55.6045 33.4203 55.8531C33.4203 56.1018 33.5191 56.3402 33.6949 56.516C33.8708 56.6919 34.1092 56.7906 34.3578 56.7906Z" fill="white"/>
<path d="M50.7891 61.6937H53.2141C53.4627 61.6937 53.7012 61.5949 53.877 61.4191C54.0528 61.2433 54.1516 61.0048 54.1516 60.7562C54.1516 60.5075 54.0528 60.2691 53.877 60.0933C53.7012 59.9174 53.4627 59.8187 53.2141 59.8187H50.7891C50.5404 59.8187 50.302 59.9174 50.1262 60.0933C49.9503 60.2691 49.8516 60.5075 49.8516 60.7562C49.8516 61.0048 49.9503 61.2433 50.1262 61.4191C50.302 61.5949 50.5404 61.6937 50.7891 61.6937Z" fill="white"/>
<path d="M25.8484 61.2313C25.8484 61.4799 25.9472 61.7184 26.123 61.8942C26.2989 62.07 26.5373 62.1688 26.7859 62.1688H29.0531C29.3018 62.1688 29.5402 62.07 29.7161 61.8942C29.8919 61.7184 29.9906 61.4799 29.9906 61.2313C29.9906 60.9827 29.8919 60.7442 29.7161 60.5684C29.5402 60.3926 29.3018 60.2938 29.0531 60.2938H26.7859C26.5373 60.2938 26.2989 60.3926 26.123 60.5684C25.9472 60.7442 25.8484 60.9827 25.8484 61.2313Z" fill="white"/>
<path d="M64.0876 63.2875C64.0876 63.5361 64.1864 63.7746 64.3622 63.9504C64.538 64.1262 64.7764 64.225 65.0251 64.225H67.7673C68.0159 64.225 68.2544 64.1262 68.4302 63.9504C68.606 63.7746 68.7048 63.5361 68.7048 63.2875C68.7048 63.0388 68.606 62.8004 68.4302 62.6246C68.2544 62.4488 68.0159 62.35 67.7673 62.35H65.0251C64.7764 62.35 64.538 62.4488 64.3622 62.6246C64.1864 62.8004 64.0876 63.0388 64.0876 63.2875Z" fill="white"/>
<path d="M14.1844 62.35H11.4422C11.1936 62.35 10.9551 62.4488 10.7793 62.6246C10.6035 62.8004 10.5047 63.0388 10.5047 63.2875C10.5047 63.5361 10.6035 63.7746 10.7793 63.9504C10.9551 64.1262 11.1936 64.225 11.4422 64.225H14.1844C14.433 64.225 14.6715 64.1262 14.8473 63.9504C15.0231 63.7746 15.1219 63.5361 15.1219 63.2875C15.1219 63.0388 15.0231 62.8004 14.8473 62.6246C14.6715 62.4488 14.433 62.35 14.1844 62.35Z" fill="white"/>
<path d="M44.3235 54.7079H46.5907C46.8393 54.7079 47.0778 54.6091 47.2536 54.4333C47.4294 54.2575 47.5282 54.019 47.5282 53.7704C47.5282 53.5217 47.4294 53.2833 47.2536 53.1074C47.0778 52.9316 46.8393 52.8329 46.5907 52.8329H44.3235C44.0748 52.8329 43.8364 52.9316 43.6606 53.1074C43.4848 53.2833 43.386 53.5217 43.386 53.7704C43.386 54.019 43.4848 54.2575 43.6606 54.4333C43.8364 54.6091 44.0748 54.7079 44.3235 54.7079Z" fill="white"/>
<path d="M36.6719 41.6922H43.3281C43.5768 41.6922 43.8152 41.5935 43.991 41.4176C44.1669 41.2418 44.2656 41.0034 44.2656 40.7547V36.2797C44.2656 35.1484 43.8162 34.0634 43.0163 33.2635C42.2163 32.4635 41.1313 32.0141 40 32.0141C38.8687 32.0141 37.7837 32.4635 36.9837 33.2635C36.1838 34.0634 35.7344 35.1484 35.7344 36.2797V40.7547C35.7344 41.0034 35.8331 41.2418 36.009 41.4176C36.1848 41.5935 36.4232 41.6922 36.6719 41.6922ZM37.6094 36.2797C37.6094 35.6457 37.8612 35.0376 38.3096 34.5893C38.7579 34.141 39.366 33.8891 40 33.8891C40.634 33.8891 41.2421 34.141 41.6904 34.5893C42.1388 35.0376 42.3906 35.6457 42.3906 36.2797V39.8172H37.6094V36.2797Z" fill="white"/>
<path d="M32.6766 29.8921C32.428 29.8921 32.1895 29.9909 32.0137 30.1667C31.8379 30.3425 31.7391 30.581 31.7391 30.8296V31.5499C31.7391 31.7986 31.8379 32.037 32.0137 32.2129C32.1895 32.3887 32.428 32.4874 32.6766 32.4874C32.9253 32.4874 33.1637 32.3887 33.3395 32.2129C33.5154 32.037 33.6141 31.7986 33.6141 31.5499V30.8296C33.6141 30.581 33.5154 30.3425 33.3395 30.1667C33.1637 29.9909 32.9253 29.8921 32.6766 29.8921Z" fill="white"/>
<path d="M32.6766 33.4515C32.428 33.4515 32.1895 33.5503 32.0137 33.7261C31.8379 33.9019 31.7391 34.1403 31.7391 34.389V40.2484C31.7391 40.497 31.8379 40.7354 32.0137 40.9113C32.1895 41.0871 32.428 41.1859 32.6766 41.1859C32.9253 41.1859 33.1637 41.0871 33.3395 40.9113C33.5154 40.7354 33.6141 40.497 33.6141 40.2484V34.389C33.6141 34.1403 33.5154 33.9019 33.3395 33.7261C33.1637 33.5503 32.9253 33.4515 32.6766 33.4515Z" fill="white"/>
<path d="M65.5406 48.7344C65.5406 48.4858 65.4419 48.2473 65.2661 48.0715C65.0902 47.8957 64.8518 47.7969 64.6031 47.7969H62.0203C61.7717 47.7969 61.5332 47.8957 61.3574 48.0715C61.1816 48.2473 61.0828 48.4858 61.0828 48.7344C61.0828 48.9831 61.1816 49.2215 61.3574 49.3973C61.5332 49.5732 61.7717 49.6719 62.0203 49.6719H64.6031C64.8518 49.6719 65.0902 49.5732 65.2661 49.3973C65.4419 49.2215 65.5406 48.9831 65.5406 48.7344Z" fill="white"/>
<path d="M19.6296 42.6969C19.6296 42.4483 19.5308 42.2098 19.355 42.034C19.1792 41.8582 18.9407 41.7594 18.6921 41.7594H16.1077C15.8591 41.7594 15.6206 41.8582 15.4448 42.034C15.269 42.2098 15.1702 42.4483 15.1702 42.6969C15.1702 42.9455 15.269 43.184 15.4448 43.3598C15.6206 43.5356 15.8591 43.6344 16.1077 43.6344H18.6921C18.9407 43.6344 19.1792 43.5356 19.355 43.3598C19.5308 43.184 19.6296 42.9455 19.6296 42.6969Z" fill="white"/>
<path d="M72.5531 72.3328V39.3996C73.2088 39.3818 73.8316 39.1091 74.2894 38.6394C74.7472 38.1696 75.0038 37.5399 75.0047 36.884V28.3437C75.0047 28.0951 74.9059 27.8566 74.7301 27.6808C74.5543 27.505 74.3158 27.4062 74.0672 27.4062H70.5281C70.2795 27.4062 70.041 27.505 69.8652 27.6808C69.6894 27.8566 69.5906 28.0951 69.5906 28.3437V30.2531H67.6797V28.3437C67.6797 28.0951 67.5809 27.8566 67.4051 27.6808C67.2293 27.505 66.9908 27.4062 66.7422 27.4062H63.2031C62.9545 27.4062 62.716 27.505 62.5402 27.6808C62.3644 27.8566 62.2656 28.0951 62.2656 28.3437V30.2531H60.3547V28.3437C60.3547 28.0951 60.2559 27.8566 60.0801 27.6808C59.9043 27.505 59.6658 27.4062 59.4172 27.4062H55.8781C55.6295 27.4062 55.391 27.505 55.2152 27.6808C55.0394 27.8566 54.9406 28.0951 54.9406 28.3437V36.8843C54.9415 37.5402 55.1981 38.1699 55.6559 38.6397C56.1136 39.1094 56.7365 39.3821 57.3922 39.4V44.8046H53.5094C53.2607 44.8046 53.0223 44.9034 52.8464 45.0792C52.6706 45.255 52.5719 45.4935 52.5719 45.7421V47.6515H51.7515V27.6203H53.3406C53.5229 27.6202 53.7013 27.567 53.8538 27.4671C54.0064 27.3672 54.1265 27.225 54.1995 27.0579C54.2724 26.8908 54.2951 26.7061 54.2646 26.5263C54.2342 26.3465 54.152 26.1795 54.0281 26.0457L40.9375 11.9121V9.64996L47.4131 6.83152C47.5784 6.75956 47.7195 6.64146 47.8193 6.49137C47.9192 6.34129 47.9737 6.16559 47.9763 5.98532C47.9789 5.80505 47.9294 5.62787 47.8338 5.47499C47.7383 5.32212 47.6007 5.20005 47.4375 5.1234L40.8244 2.0173C40.725 1.83388 40.5674 1.68883 40.3763 1.6051C40.1853 1.52136 39.9718 1.50374 39.7696 1.555C39.5674 1.60627 39.3881 1.7235 39.26 1.88814C39.1319 2.05278 39.0624 2.25543 39.0625 2.46402V11.9121L25.9715 26.0457C25.8477 26.1795 25.7655 26.3465 25.735 26.5263C25.7046 26.7061 25.7272 26.8908 25.8002 27.0579C25.8732 27.225 25.9933 27.3672 26.1458 27.4671C26.2984 27.567 26.4767 27.6202 26.659 27.6203H28.2481V47.6515H27.4278V45.7421C27.4278 45.4935 27.329 45.255 27.1532 45.0792C26.9774 44.9034 26.7389 44.8046 26.4903 44.8046H22.6078V39.3996C23.2635 39.3818 23.8863 39.1091 24.3441 38.6394C24.8019 38.1696 25.0585 37.5399 25.0594 36.884V28.3437C25.0594 28.0951 24.9606 27.8566 24.7848 27.6808C24.609 27.505 24.3705 27.4062 24.1219 27.4062H20.5828C20.3342 27.4062 20.0957 27.505 19.9199 27.6808C19.7441 27.8566 19.6453 28.0951 19.6453 28.3437V30.2531H17.7344V28.3437C17.7344 28.0951 17.6356 27.8566 17.4598 27.6808C17.284 27.505 17.0455 27.4062 16.7969 27.4062H13.2578C13.0092 27.4062 12.7707 27.505 12.5949 27.6808C12.4191 27.8566 12.3203 28.0951 12.3203 28.3437V30.2531H10.4094V28.3437C10.4094 28.0951 10.3106 27.8566 10.1348 27.6808C9.95896 27.505 9.7205 27.4062 9.47186 27.4062H5.9328C5.68416 27.4062 5.4457 27.505 5.26989 27.6808C5.09407 27.8566 4.9953 28.0951 4.9953 28.3437V36.8843C4.9962 37.5402 5.25279 38.1699 5.71056 38.6397C6.16833 39.1094 6.79121 39.3821 7.44686 39.4V72.3328C6.2776 72.382 5.17249 72.8807 4.36202 73.7249C3.55156 74.5692 3.09832 75.6937 3.09686 76.864V77.5359C3.09686 77.7845 3.19563 78.023 3.37145 78.1988C3.54727 78.3746 3.78572 78.4734 4.03436 78.4734H75.9656C76.2142 78.4734 76.4527 78.3746 76.6285 78.1988C76.8043 78.023 76.9031 77.7845 76.9031 77.5359V76.864C76.9016 75.6937 76.4484 74.5692 75.6379 73.7249C74.8275 72.8807 73.7224 72.382 72.5531 72.3328ZM40.9375 4.14183L44.7645 5.93871L40.9375 7.60496V4.14183ZM56.8156 36.8843V29.2812H58.4797V31.1906C58.4797 31.4392 58.5784 31.6777 58.7543 31.8535C58.9301 32.0293 59.1685 32.1281 59.4172 32.1281H63.2031C63.4517 32.1281 63.6902 32.0293 63.866 31.8535C64.0418 31.6777 64.1406 31.4392 64.1406 31.1906V29.2812H65.8047V31.1906C65.8047 31.4392 65.9034 31.6777 66.0793 31.8535C66.2551 32.0293 66.4935 32.1281 66.7422 32.1281H70.5281C70.7767 32.1281 71.0152 32.0293 71.191 31.8535C71.3668 31.6777 71.4656 31.4392 71.4656 31.1906V29.2812H73.1297V36.8843C73.1295 37.055 73.0616 37.2187 72.9409 37.3394C72.8202 37.46 72.6566 37.5279 72.4859 37.5281H57.4594C57.2887 37.5279 57.125 37.46 57.0043 37.3394C56.8836 37.2187 56.8158 37.055 56.8156 36.8843ZM40 13.6592L51.1944 25.7453H36.0937C35.8451 25.7453 35.6066 25.844 35.4308 26.0199C35.255 26.1957 35.1562 26.4341 35.1562 26.6828C35.1562 26.9314 35.255 27.1699 35.4308 27.3457C35.6066 27.5215 35.8451 27.6203 36.0937 27.6203H49.8765V47.6515H49.2297V45.7421C49.2297 45.4935 49.1309 45.255 48.9551 45.0792C48.7793 44.9034 48.5408 44.8046 48.2922 44.8046H42.4515C42.2029 44.8046 41.9644 44.9034 41.7886 45.0792C41.6128 45.255 41.514 45.4935 41.514 45.7421V47.6515H38.4859V45.7421C38.4859 45.4935 38.3871 45.255 38.2113 45.0792C38.0355 44.9034 37.7971 44.8046 37.5484 44.8046H31.7078C31.4592 44.8046 31.2207 44.9034 31.0449 45.0792C30.8691 45.255 30.7703 45.4935 30.7703 45.7421V47.6515H30.1234V27.6203H32.6562C32.9049 27.6203 33.1433 27.5215 33.3191 27.3457C33.495 27.1699 33.5937 26.9314 33.5937 26.6828C33.5937 26.4341 33.495 26.1957 33.3191 26.0199C33.1433 25.844 32.9049 25.7453 32.6562 25.7453H28.8056L40 13.6592ZM25.5531 46.6796V48.589C25.5531 48.8377 25.6519 49.0761 25.8277 49.2519C26.0035 49.4277 26.242 49.5265 26.4906 49.5265H31.7078C31.9564 49.5265 32.1949 49.4277 32.3707 49.2519C32.5465 49.0761 32.6453 48.8377 32.6453 48.589V46.6796H36.6109V48.589C36.6109 48.8377 36.7097 49.0761 36.8855 49.2519C37.0613 49.4277 37.2998 49.5265 37.5484 49.5265H42.4515C42.7002 49.5265 42.9386 49.4277 43.1145 49.2519C43.2903 49.0761 43.389 48.8377 43.389 48.589V46.6796H47.3547V48.589C47.3547 48.8377 47.4534 49.0761 47.6293 49.2519C47.8051 49.4277 48.0435 49.5265 48.2922 49.5265H53.5094C53.758 49.5265 53.9965 49.4277 54.1723 49.2519C54.3481 49.0761 54.4469 48.8377 54.4469 48.589V46.6796H58.1031V51.5937H56.325C56.0763 51.5937 55.8379 51.6925 55.6621 51.8683C55.4863 52.0441 55.3875 52.2826 55.3875 52.5312C55.3875 52.7799 55.4863 53.0183 55.6621 53.1941C55.8379 53.3699 56.0763 53.4687 56.325 53.4687H58.1031V61.1781C58.1031 61.4267 58.2019 61.6652 58.3777 61.841C58.5535 62.0168 58.792 62.1156 59.0406 62.1156C59.2892 62.1156 59.5277 62.0168 59.7035 61.841C59.8793 61.6652 59.9781 61.4267 59.9781 61.1781V57.1062H62.389C62.6377 57.1062 62.8761 57.0074 63.052 56.8316C63.2278 56.6558 63.3265 56.4173 63.3265 56.1687C63.3265 55.9201 63.2278 55.6816 63.052 55.5058C62.8761 55.33 62.6377 55.2312 62.389 55.2312H59.9781V45.7421C59.9779 45.5331 59.9078 45.3301 59.779 45.1654C59.6502 45.0008 59.47 44.8839 59.2672 44.8334V39.4031H70.6781V40.9953H68.1984C67.9498 40.9953 67.7113 41.094 67.5355 41.2699C67.3597 41.4457 67.2609 41.6841 67.2609 41.9328C67.2609 42.1814 67.3597 42.4199 67.5355 42.5957C67.7113 42.7715 67.9498 42.8703 68.1984 42.8703H70.6781V69.7843H68.3469C68.0982 69.7843 67.8598 69.8831 67.6839 70.0589C67.5081 70.2347 67.4094 70.4732 67.4094 70.7218C67.4094 70.9705 67.5081 71.2089 67.6839 71.3847C67.8598 71.5606 68.0982 71.6593 68.3469 71.6593H70.6781V72.3281H59.9781V64.4531C59.9781 64.2044 59.8793 63.966 59.7035 63.7902C59.5277 63.6144 59.2892 63.5156 59.0406 63.5156C58.792 63.5156 58.5535 63.6144 58.3777 63.7902C58.2019 63.966 58.1031 64.2044 58.1031 64.4531V67.8859H56.1672C55.9185 67.8859 55.6801 67.9847 55.5043 68.1605C55.3284 68.3363 55.2297 68.5748 55.2297 68.8234C55.2297 69.072 55.3284 69.3105 55.5043 69.4863C55.6801 69.6621 55.9185 69.7609 56.1672 69.7609H58.1031V72.3281H46.2359V67.8359H50.2219C50.4705 67.8359 50.709 67.7371 50.8848 67.5613C51.0606 67.3855 51.1594 67.147 51.1594 66.8984C51.1594 66.6497 51.0606 66.4113 50.8848 66.2355C50.709 66.0597 50.4705 65.9609 50.2219 65.9609H46.2298C46.1972 65.065 45.9415 64.1915 45.486 63.4193C45.0305 62.6472 44.3895 62.0009 43.6212 61.539L40.4806 59.664C40.3353 59.5773 40.1692 59.5314 40 59.5314C39.8307 59.5314 39.6647 59.5773 39.5194 59.664L36.3787 61.539C35.583 62.0169 34.9242 62.6921 34.4661 63.4994C34.008 64.3067 33.7662 65.2186 33.764 66.1468V69.1515H31.2125C30.9638 69.1515 30.7254 69.2503 30.5496 69.4261C30.3738 69.6019 30.275 69.8404 30.275 70.089C30.275 70.3377 30.3738 70.5761 30.5496 70.7519C30.7254 70.9277 30.9638 71.0265 31.2125 71.0265H33.764V72.3281H21.8969V66.5968H23.675C23.9236 66.5968 24.1621 66.4981 24.3379 66.3222C24.5137 66.1464 24.6125 65.908 24.6125 65.6593C24.6125 65.4107 24.5137 65.1722 24.3379 64.9964C24.1621 64.8206 23.9236 64.7218 23.675 64.7218H21.8969V46.6796H25.5531ZM44.3609 66.1468V72.3281H35.639V66.1468C35.6403 65.5429 35.7975 64.9495 36.0955 64.4243C36.3936 63.899 36.8222 63.4596 37.34 63.1487L40 61.5606L42.6605 63.1489C43.1781 63.4598 43.6066 63.8992 43.9046 64.4244C44.2025 64.9497 44.3597 65.543 44.3609 66.1468ZM6.8703 36.8843V29.2812H8.53436V31.1906C8.53436 31.4392 8.63313 31.6777 8.80895 31.8535C8.98476 32.0293 9.22322 32.1281 9.47186 32.1281H13.2578C13.5064 32.1281 13.7449 32.0293 13.9207 31.8535C14.0965 31.6777 14.1953 31.4392 14.1953 31.1906V29.2812H15.8594V31.1906C15.8594 31.4392 15.9581 31.6777 16.1339 31.8535C16.3098 32.0293 16.5482 32.1281 16.7969 32.1281H20.5828C20.8314 32.1281 21.0699 32.0293 21.2457 31.8535C21.4215 31.6777 21.5203 31.4392 21.5203 31.1906V29.2812H23.1844V36.8843C23.1842 37.055 23.1163 37.2187 22.9956 37.3394C22.8749 37.46 22.7113 37.5279 22.5406 37.5281H7.51405C7.34337 37.5279 7.17972 37.46 7.05903 37.3394C6.93834 37.2187 6.87047 37.055 6.8703 36.8843ZM18.2437 57.264H20.0219V65.4412C19.9864 65.5845 19.9864 65.7342 20.0219 65.8775V69.1515H17.6109C17.3623 69.1515 17.1238 69.2503 16.948 69.4261C16.7722 69.6019 16.6734 69.8404 16.6734 70.089C16.6734 70.3377 16.7722 70.5761 16.948 70.7519C17.1238 70.9277 17.3623 71.0265 17.6109 71.0265H20.0219V72.3281H9.32186V50.1468H11.7953C12.0439 50.1468 12.2824 50.0481 12.4582 49.8722C12.634 49.6964 12.7328 49.458 12.7328 49.2093C12.7328 48.9607 12.634 48.7222 12.4582 48.5464C12.2824 48.3706 12.0439 48.2718 11.7953 48.2718H9.32186V39.4031H20.7328V44.8334C20.5299 44.8839 20.3498 45.0008 20.221 45.1654C20.0922 45.3301 20.0221 45.5331 20.0219 45.7421V55.389H18.2437C17.9951 55.389 17.7566 55.4878 17.5808 55.6636C17.405 55.8394 17.3062 56.0779 17.3062 56.3265C17.3062 56.5752 17.405 56.8136 17.5808 56.9894C17.7566 57.1652 17.9951 57.264 18.2437 57.264ZM4.98436 76.5984C5.05105 75.9421 5.35877 75.3339 5.84799 74.8915C6.33722 74.449 6.97317 74.2037 7.6328 74.2031H72.3672C73.0268 74.2037 73.6628 74.449 74.152 74.8915C74.6412 75.3339 74.9489 75.9421 75.0156 76.5984H4.98436Z" fill="white"/>
</svg>

<svg width="80" height="80" fill="none" xmlns="http://www.w3.org/2000/svg"><path d="M23.622 54.417h2.267a.937.937 0 100-1.875h-2.267a.937.937 0 100 1.875zm10.736 2.373h2.9a.937.937 0 100-1.874h-2.9a.938.938 0 000 1.875zm16.432 4.904h2.424a.938.938 0 000-1.875H50.79a.937.937 0 100 1.875zm-24.942-.463a.938.938 0 00.938.938h2.267a.938.938 0 000-1.875h-2.267a.938.938 0 00-.938.937zm38.24 2.057a.938.938 0 00.937.937h2.742a.938.938 0 000-1.875h-2.742a.937.937 0 00-.937.938zm-49.904-.938h-2.742a.938.938 0 000 1.875h2.742a.938.938 0 000-1.875zm30.14-7.642h2.267a.938.938 0 000-1.875h-2.267a.937.937 0 100 1.875zm-7.652-13.016h6.656a.937.937 0 00.938-.937V36.28a4.266 4.266 0 10-8.532 0v4.475a.937.937 0 00.938.937zm.937-5.412a2.39 2.39 0 114.782 0v3.537h-4.782V36.28zm-4.932-6.388a.938.938 0 00-.938.938v.72a.938.938 0 001.875 0v-.72a.937.937 0 00-.937-.938zm0 3.56a.938.938 0 00-.938.937v5.86a.938.938 0 001.875 0v-5.86a.937.937 0 00-.937-.938zM65.54 48.734a.937.937 0 00-.937-.937H62.02a.938.938 0 000 1.875h2.583a.937.937 0 00.938-.938zm-45.91-6.037a.938.938 0 00-.938-.938h-2.584a.938.938 0 000 1.875h2.584a.938.938 0 00.938-.937z" fill="#fff"/><path d="M72.553 72.333V39.4a2.52 2.52 0 002.452-2.516v-8.54a.938.938 0 00-.938-.938h-3.539a.938.938 0 00-.937.938v1.91H67.68v-1.91a.938.938 0 00-.938-.938h-3.539a.938.938 0 00-.937.938v1.91h-1.911v-1.91a.938.938 0 00-.938-.938h-3.539a.938.938 0 00-.937.938v8.54a2.52 2.52 0 002.451 2.516v5.405H53.51a.938.938 0 00-.937.937v1.91h-.82V27.62h1.589a.938.938 0 00.687-1.574l-13.09-14.134V9.65l6.475-2.818a.937.937 0 00.025-1.709l-6.614-3.106a.938.938 0 00-1.761.447v9.448L25.97 26.046a.939.939 0 00.688 1.574h1.59v20.031h-.821v-1.909a.938.938 0 00-.938-.937h-3.882V39.4a2.52 2.52 0 002.451-2.516v-8.54a.938.938 0 00-.937-.938h-3.54a.938.938 0 00-.937.938v1.91h-1.91v-1.91a.938.938 0 00-.938-.938h-3.54a.938.938 0 00-.937.938v1.91h-1.91v-1.91a.938.938 0 00-.938-.938h-3.54a.938.938 0 00-.937.938v8.54A2.52 2.52 0 007.447 39.4v32.933a4.541 4.541 0 00-4.35 4.531v.672a.937.937 0 00.937.937h71.932a.938.938 0 00.937-.937v-.672a4.541 4.541 0 00-4.35-4.531zM40.938 4.142l3.826 1.797-3.827 1.666V4.142zm15.878 32.742v-7.603h1.664v1.91a.937.937 0 00.937.937h3.786a.938.938 0 00.938-.937v-1.91h1.664v1.91a.937.937 0 00.937.937h3.786a.938.938 0 00.938-.937v-1.91h1.664v7.603a.645.645 0 01-.644.644H57.459a.645.645 0 01-.643-.644zM40 13.66l11.194 12.086h-15.1a.937.937 0 100 1.875h13.782v20.031h-.646v-1.909a.938.938 0 00-.938-.937h-5.84a.938.938 0 00-.938.937v1.91h-3.028v-1.91a.938.938 0 00-.938-.937h-5.84a.938.938 0 00-.938.937v1.91h-.647V27.62h2.533a.937.937 0 100-1.875h-3.85L40 13.66zM25.553 46.68v1.91a.937.937 0 00.938.938h5.217a.938.938 0 00.937-.938v-1.91h3.966v1.91a.937.937 0 00.937.938h4.904a.938.938 0 00.937-.938v-1.91h3.966v1.91a.937.937 0 00.937.938h5.217a.938.938 0 00.938-.938v-1.91h3.656v4.915h-1.778a.937.937 0 100 1.875h1.778v7.71a.938.938 0 001.875 0v-4.073h2.411a.938.938 0 000-1.875h-2.41v-9.489a.938.938 0 00-.712-.909v-5.43h11.411v1.592h-2.48a.937.937 0 100 1.875h2.48v26.914h-2.331a.938.938 0 000 1.875h2.331v.67h-10.7v-7.876a.937.937 0 10-1.875 0v3.433h-1.936a.937.937 0 100 1.875h1.936v2.567H46.236v-4.492h3.986a.938.938 0 000-1.875H46.23a5.388 5.388 0 00-2.609-4.422l-3.14-1.875a.938.938 0 00-.962 0l-3.14 1.875a5.39 5.39 0 00-2.615 4.608v3.004h-2.552a.937.937 0 100 1.876h2.552v1.301H21.897v-5.731h1.778a.937.937 0 100-1.875h-1.778V46.68h3.656zm18.808 19.468v6.181h-8.722v-6.181a3.506 3.506 0 011.701-2.998L40 61.56l2.66 1.588a3.506 3.506 0 011.7 2.998zM6.87 36.884v-7.603h1.663v1.91a.937.937 0 00.938.937h3.786a.938.938 0 00.937-.937v-1.91h1.664v1.91a.937.937 0 00.938.937h3.786a.938.938 0 00.937-.937v-1.91h1.664v7.603a.645.645 0 01-.643.644H7.514a.645.645 0 01-.644-.644zm11.373 20.38h1.778v8.177a.907.907 0 000 .436v3.275H17.61a.938.938 0 000 1.874h2.41v1.302H9.32V50.147h2.474a.937.937 0 100-1.875H9.322v-8.869h11.41v5.43a.937.937 0 00-.71.91v9.646h-1.778a.938.938 0 000 1.875zM4.984 76.598a2.664 2.664 0 012.649-2.395h64.734a2.664 2.664 0 012.649 2.395H4.984z" fill="#fff"/></svg>
